X:59
T:Ah Spring
M:4/4
L:1/8
Q:400
C:Chris Thile - Stealing Second CD
S:Jim Coon to CoMandoList TOW
K:G
z6ef|:gabg degd|BcdB GABG|Acea EAce|A,CEA DFAd|!
gabg degd|BcdB GABG|Acea EAce|
DFAB cBAF|1GEDB, G,3g:|2GEDB, G,2gf|!
|:e2dee2 ef|gfed cecB|cBAG EAED|EDCE DFAd|!
e2dee2ef|gfed cecB|cBAG EDCE|DFAB cBAF|1
GEDB, G,egf:|2GEDB,G,4|!
|gabg degd|BcdB GABG|Acea EAce|A,CEA EAce|!
Acea ceac'|^c'/d'/afd fdfa|gedc BGAF|
G2[fAD][fA]z[gAD][g2B2D2]|z2[d'2f2A2][g4B4D4]|
